X:1
T:Christum wir wollen loben
T:Balthasar Resinarius
T:Source :  DDT 34---Leipzig---Breitkopf & Häe-rtel---J.Wolf---1908. First print : Neue Deudsche Geistliche Gesenge---Wittemberg---G.Rhau---1544 Editor : André Vierendeels (21/07/17).
T:Notes : Original Clefs : C1, C3, C3, C4 Original note values have been halved Editorial accidentals above the staff "Hymnus : A solis ortus"
T:Christum wir wollen loben
T:©
T:©
C:Balthasar Resinarius
Z:©
%%score [ 1 2 [ 3 4 ] ]
L:1/8
Q:1/4=120
M:2/2
K:F
V:1 treble nm="Soprano" snm="S"
V:2 treble nm="Alto" snm="A"
V:3 treble-8 nm="Tenor 1" snm="T 1"
V:4 treble-8 nm="Tenor 2" snm="T 2"
V:1
 z8 | G4 B3 c | d4 G4 | z2 B3 cdB | c2 A3 G GF | A4 c4 | d2 f4 e2 | f3 e d2 c2 | d4 A4 | %9
w: |Chri- stum wir|sol- len|lo- * * *|* * * ben _|schon, der|rei- * nen|Magd _ _ _|_ Ma-|
 G2 c3 B BA | c2 A2 B3 G | A3 B c2 d2- | d2 B2 c4 | B4 A4 | A3 B c2 A2- | AG G4 F2 | G8 | %17
w: ri- * * en _|Sohn, so weit _|_ _ _ _|* * die|lie- be|Son- * * *|* * * ne|leucht't|
 z2 G2 B3 c | d3 e f4 | d6 c2 | B4 A3 B | c2 d3 c B2- | BA A3 G GF | A3 G E2 F2- | %24
w: und an _|al- * ler|Welt _|_ _ _||* * En- * de _|reicht. _ _ _|
 F2 ED !fermata!E4 |] %25
w: _ _ _ _|
V:2
 G,4 B,3 C | D4 G,2 B,2- | B,A,B,C D4 | z4 z2 D2 | C2 F2 D3 E | F3 E C2 F2- | F2 F2 G4 | F4 z2 C2 | %8
w: Chri- stum wir|sol- len [lo-|* * * * ben,]|lo-|||* * ben|schon, der|
 B,CDB, C4 | C4 z2 G2 | E2 F2 D2 B,2 | C4 z2 D2- | DG, G3 F FE | G2 D2 D4 | C6 F,2 | G,4 A,4 | %16
w: rei- * * * nen|Magd Ma-|ri- * * en|Sohn, so|_ _ weit _ die _|lie- * be|Son- *|* ne|
 G,4 z2 G,2 | B,3 C D3 E | F3 G A4 | B6 AG | F3 G A4- | A2 F4 G2 | E2 F2 D3 E | F4 z2 F,2- | %24
w: leucht't und|an _ al- *|* * ler|Welt _ _|En- * *||* * de _|reicht, En-|
"^-natural""^#" F,G, A,B, !fermata!C4 |] %25
w: * * de _ reicht.|
V:3
 z8 | z4 G4- | G4 B3 c | d4 G4 | c4 B4 | A8 | z4 c4 | d4 f4 | f4 f4 | e4 d4 | c2 f3 e ed | f8 | %12
w: |Chri-|* stum wir|sol- len|lo- ben|schon,|der|rei- *|nen Magd|_ Ma-|ri- * * en _|Sohn,|
 z4 c4 | d4 f4 | f4 e2 d2- | dccB d4 | d8 | z8 | z8 | G4 B3 c | d3 e f4- | f4 d4 | c2 d2 B4 | A8- | %24
w: so|weit die|lie- be Son-|* * * * ne|leucht't|||und an _|al- * ler|_ Welt|En- * de|reicht.|
 !fermata!A8 |] %25
w: _|
V:4
 z4 G4 | B3 c d4 | G8 | z2 G3 ABG | A2 F2 G4 | D2 F3 GAF | B2 F2 c4 | z2 B4 A2 | B4 F3 E | %9
w: Chri-|stum wir sol-|len|lo- * * *||[ben, lo- * * *|] ben schon,|der _|rei- nen _|
 CDEF G4 | A2 F2 G4 |"^#" F3 G A2 B2- | B2 G2 A4 | G4 D3 E | F3 E C2 D2 | E4 D4 | z2 G2 B3 c | %17
w: Magd _ _ _ Ma-|* ri- en|Sohn, _ _ _|_ _ _|* So _|weit [die lie- be|Son- ne,]|die lie- *|
 d3 e f2 B2 | B2 AG F4 | z2 G2 G3 A | B3 A/G/ F3 G | A2 B4 G2 | A2 F2 G4 | D4 C2 D2- | %24
w: * * * be|Son- ne _ leucht't|und an _|al- * * ler _|Welt _ _|En- * de|reicht. _ _|
"^-natural" D2 CB, !fermata!A,4 |] %25
w: _ _ _ _|

